!!!COM: Hummel, Johann Nepomuk
!!!CDT: 1778/11/14/-1837/10/17/
!!!OTL: Prelude in F-sharp Minor, Op. 67, No. 8
!!!OPS: Op. 67
!!!ONM: No. 8
!!!OMD: Allegro, molto animato
!!!ODT: 1815///
!!!AIN: piano
**kern	**kern	**dynam
*staff2	*staff1	*staff1/2
*Ipiano	*Ipiano	*Ipiano
*clefF4	*clefG2	*clefG2
*k[f#c#g#]	*k[f#c#g#]	*k[f#c#g#]
*f#:	*f#:	*f#:
*met(C)	*met(C)	*met(C)
*M4/4	*M4/4	*M4/4
*MM160	*MM160	*MM160
=1-	=1-	=1-
*^	*	*
12r	2FF#\ 2AA\ 2C#\	2r	.
12F#/L	.	.	.
12E#/J	.	.	.
12F#/L	.	.	.
12G#/	.	.	.
12A/J	.	.	.
2r	2GG#\ 2BB\ 2E#\	12B/L	p
.	.	12c#/	.
.	.	12d#/J	.
.	.	12e#/L	.
.	.	12f#/	.
.	.	12g#/J	.
*v	*v	*	*
=2	=2	=2
2AA/ 2C#/ 2F#/	12c#/L	.
.	12B#/	.
.	12c#/J	.
.	12d#/L	.
.	12e#/	.
.	12f#/J	<
2BB\ 2D\ [2G#\	12g#/L	.
.	12a/	.
.	12bn/J	.
.	12cc#/L	.
.	12ddn/	.
.	12f#/J	.
=3	=3	=3
2C#\ 2E#\ 2G#\]	12e#/L	.
.	12d#/	.
.	12e#/J	.
.	12f#/L	.
.	12g#/	.
.	12a#/J	.
2D#\ 2F#\ 2B#\	12b#\L	.
.	12cc#\	.
.	12dd#\J	.
.	12ee#\L	.
.	12ff#\	.
.	12b#\J	.
=4	=4	=4
*^	*	*
2.c#/	2E#\ 2G#\	12cc#\L	.
.	.	12b#\	.
.	.	12cc#\J	.
.	.	12dd#\L	.
.	.	12ee#\	.
.	.	12ff#\J	.
.	2F#\ 2A\	12gg#\L	.
.	.	12aa\	.
.	.	12dd#\J	.
[4d#/	.	12ee#\L	.
.	.	12ff#\	.
.	.	12gg#\J	.
=5	=5	=5	=5
4d#/]	2G#\ 2B\	12aa\L	.
.	.	12bb\	.
.	.	12ee#\J	.
2e#/	.	12ff#\L	.
.	.	12gg#\	.
.	.	12aa\J	.
.	2A\ 2c#\	12bb\L	.
.	.	12ccc#\	.
.	.	12ff#\J	.
[4f#/	.	12gg#\L	.
.	.	12aa\	.
.	.	12bb\J	.
=6	=6	=6	=6
4f#/]	2B\ 2dn\	12ccc#\L	f
.	.	12dddn\	.
.	.	12bb\J	.
4gn/	.	12ggn\L	.
.	.	12dd\	.
.	.	12b\J	.
4r	2r	12gn/L	.
.	.	12d/	.
.	.	12B/J	.
12Gn/L	.	4r	.
12D/	.	.	.
12BB/J	.	.	.
=7	=7	=7	=7
*	*	*^	*
12r	2BBB\	4r	4r	.
[[12GGn/L	.	.	.	.
[12BB/J	.	.	.	.
4GG/] 4BB/]	.	12Gn/L	4Gn\	.
.	.	12d/	.	.
.	.	12gn/J	.	.
12r	2BBB#\	4r	4r	.
[[12AA/L	.	.	.	.
[12BB#/J	.	.	.	.
4AA/] 4BB#/]	.	12F#/L	4F#\	.
.	.	12d#/	.	.
.	.	12f#/J	.	.
*	*	*v	*v	*
=8	=8	=8	=8
*MM144	*MM144	*MM144	*MM144
12CC#/L	[1CC#	4r	.
[[12FF#/	.	.	.
[12AA/J	.	.	.
!! molto ritard
2.FF#/_ 2.AA/_ [2.C#/	.	12F#/L	.
.	.	12A/	.
.	.	12c#/J	>
.	.	12f#/L	.
*MM120	*MM120	*MM120	*MM120
.	.	12a/	.
.	.	12e#/J	.
.	.	12g#^/L	.
.	.	12f#/	.
.	.	12B#/J	.
*v	*v	*	*
=9	=9	=9
*MM100	*MM100	*MM100
2CC#\] 2FF#\] 2AA\] 2C#\]	12dn^/L	.
.	12c#/	.
.	12G#/J	.
*MM80	*MM80	*MM80
.	12B/L	p
.	12A/	.
.	12F#/J	.
*MM60	*MM60	*MM60
2CC#\ 2C#\	4r	.
.	4E#/ 4G#/ 4c#/	pp
=10	=10	=10
*MM40	*MM40	*MM40
1FFF#: 1FF#: 1C#: 1F#: 1A: 1c#:	1r	.
==	==	==
*-	*-	*-
!!!ENC: Craig Stuart Sapp
!!!EED: 2008/06/14/
!!!EEV: 2008/06/14/
!!!YEC: Copyright 2008 by Craig Stuart Sapp
!!!YEN: United States of America
